icons/folder-star-outline.svg

<svg xmlns="http://www.w3.org/2000/svg" width="24" height="24" viewBox="0 0 24 24">
  <path d="M11,4 C11.2652165,4 11.5195704,4.10535684 11.7071068,4.29289322 L11.7071068,4.29289322 L13.415,6 L19,6 C20.5976809,6 21.9036609,7.24891996 21.9949073,8.82372721 L21.9949073,8.82372721 L22,9 L22,17 C22,18.6568542 20.6568542,20 19,20 L19,20 L5,20 C3.34314575,20 2,18.6568542 2,17 L2,17 L2,7 C2,5.34314575 3.34314575,4 5,4 L5,4 Z M10.585,6 L5,6 C4.44771525,6 4,6.44771525 4,7 L4,7 L4,17 C4,17.5522847 4.44771525,18 5,18 L5,18 L19,18 C19.5522847,18 20,17.5522847 20,17 L20,17 L20,9 C20,8.44771525 19.5522847,8 19,8 L19,8 L13,8 C12.7347835,8 12.4804296,7.89464316 12.2928932,7.70710678 L12.2928932,7.70710678 L10.585,6 Z M12.2212829,9.18140769 C12.3198892,9.23007281 12.3997029,9.30988657 12.448368,9.40849288 L13.3225168,11.1797118 L15.2771729,11.4637399 C15.5504453,11.5034487 15.7397861,11.7571702 15.7000773,12.0304426 C15.684265,12.1392611 15.6330214,12.2398323 15.5542796,12.3165866 L14.1398772,13.6952882 L14.4737723,15.6420462 C14.5204528,15.9142144 14.3376589,16.1726924 14.0654907,16.2193729 C13.9571118,16.2379613 13.8456278,16.220304 13.7482976,16.1691344 L12,15.25 L10.2517024,16.1691344 C10.0072801,16.2976348 9.70496657,16.2036616 9.57646617,15.9592393 C9.52529663,15.861909 9.50763929,15.750425 9.52622772,15.6420462 L9.86012284,13.6952882 L8.4457204,12.3165866 C8.24797861,12.123836 8.24393246,11.8072794 8.43668307,11.6095376 C8.51343737,11.5307958 8.61400857,11.4795522 8.72282709,11.4637399 L10.6774832,11.1797118 L11.551632,9.40849288 C11.6738431,9.16086605 11.973656,9.05919655 12.2212829,9.18140769 Z"/>
</svg>

<svg xmlns="http://www.w3.org/2000/svg" viewBox="0 0 24 24">
  <path d="M11 4a1 1 0 0 1 .7.3L13.42 6H19a3 3 0 0 1 3 2.82V17a3 3 0 0 1-3 3H5a3 3 0 0 1-3-3V7a3 3 0 0 1 3-3zm-.41 2H5a1 1 0 0 0-1 1v10a1 1 0 0 0 1 1h14a1 1 0 0 0 1-1V9a1 1 0 0 0-1-1h-6a1 1 0 0 1-.7-.3L10.58 6zm1.63 3.18c.1.05.18.13.23.23l.87 1.77 1.96.28a.5.5 0 0 1 .27.86l-1.41 1.38.33 1.94a.5.5 0 0 1-.72.53L12 15.25l-1.75.92a.5.5 0 0 1-.72-.53l.33-1.94-1.41-1.38a.5.5 0 0 1 .27-.86l1.96-.28.87-1.77a.5.5 0 0 1 .67-.23z"/>
</svg>
